X: 20692
M: 2/4
L: 1/16
K: C
|:\
|:\
g3a gfeg | fedf edcB | ABAG A2a2 | (ge)cd edd2 |\
g3a gfeg | fedf edcB | ABAG ABcA | GFED GCC2 :|


